X:400
T: "Der Bettelmoench"
N: Z1080
O: Europa, Mitteleuropa, Deutschland, Koeln
R: Romanze, Ballade
M: 4/4
L: 1/8
K: G
G2 | G2d2_e2dc | d2c_BA2z
B | c2A2d2c_B | A2_BAG2z
G | A3_BA2d2 | c2_B2A2z
A | G2FEF2G2 | A3DD2
d2 | d2ccd2c_B | A4G2

